images/Pinterest.svg

<svg width="16" height="16" viewBox="0 0 16 16" fill="none" xmlns="http://www.w3.org/2000/svg">
<path d="M15.5 8C15.5 3.71875 12.0312 0.25 7.75 0.25C3.46875 0.25 0 3.71875 0 8C0 11.3125 2.03125 14.0938 4.90625 15.2188C4.84375 14.625 4.78125 13.6875 4.9375 13C5.09375 12.4062 5.84375 9.15625 5.84375 9.15625C5.84375 9.15625 5.625 8.6875 5.625 8C5.625 6.9375 6.25 6.125 7.03125 6.125C7.6875 6.125 8 6.625 8 7.21875C8 7.875 7.5625 8.875 7.34375 9.8125C7.1875 10.5625 7.75 11.1875 8.5 11.1875C9.875 11.1875 10.9375 9.75 10.9375 7.65625C10.9375 5.78125 9.59375 4.5 7.71875 4.5C5.5 4.5 4.21875 6.15625 4.21875 7.84375C4.21875 8.53125 4.46875 9.25 4.78125 9.625C4.84375 9.6875 4.84375 9.78125 4.84375 9.84375C4.78125 10.0938 4.625 10.625 4.625 10.7188C4.59375 10.875 4.5 10.9062 4.34375 10.8438C3.375 10.375 2.78125 8.96875 2.78125 7.8125C2.78125 5.375 4.5625 3.125 7.90625 3.125C10.5938 3.125 12.6875 5.0625 12.6875 7.625C12.6875 10.2812 11 12.4375 8.65625 12.4375C7.875 12.4375 7.125 12.0312 6.875 11.5312C6.875 11.5312 6.5 13.0312 6.40625 13.375C6.21875 14.0625 5.75 14.9062 5.4375 15.4062C6.15625 15.6562 6.9375 15.75 7.75 15.75C12.0312 15.75 15.5 12.2812 15.5 8Z" fill="#707070"/>
</svg>

<svg width="16" height="16" fill="none" xmlns="http://www.w3.org/2000/svg"><path d="M15.5 8A7.749 7.749 0 007.75.25 7.749 7.749 0 000 8a7.714 7.714 0 004.906 7.219c-.062-.594-.125-1.531.032-2.219.156-.594.906-3.844.906-3.844S5.625 8.687 5.625 8c0-1.063.625-1.875 1.406-1.875.657 0 .969.5.969 1.094 0 .656-.438 1.656-.656 2.593-.157.75.406 1.376 1.156 1.376 1.375 0 2.438-1.438 2.438-3.532 0-1.875-1.344-3.156-3.22-3.156-2.218 0-3.5 1.656-3.5 3.344 0 .687.25 1.406.563 1.781.063.063.063.156.063.219-.063.25-.219.781-.219.875-.031.156-.125.187-.281.125-.969-.469-1.563-1.875-1.563-3.031 0-2.438 1.781-4.688 5.125-4.688 2.688 0 4.782 1.938 4.782 4.5 0 2.656-1.688 4.813-4.032 4.813-.781 0-1.531-.407-1.781-.907 0 0-.375 1.5-.469 1.844-.187.688-.656 1.531-.968 2.031.718.25 1.5.344 2.312.344A7.749 7.749 0 0015.5 8z" fill="#707070"/></svg>
